icons/folder-star.svg

<svg xmlns="http://www.w3.org/2000/svg" width="24" height="24" viewBox="0 0 24 24">
  <path d="M11,4 L13,6 L20,6 C21.1045695,6 22,6.8954305 22,8 L22,18 C22,19.1045695 21.1045695,20 20,20 L4,20 C2.8954305,20 2,19.1045695 2,18 L2,6 C2,4.8954305 2.8954305,4 4,4 L11,4 Z M12.2212829,9.18140769 C11.973656,9.05919655 11.6738431,9.16086605 11.551632,9.40849288 L11.551632,9.40849288 L10.6774832,11.1797118 L8.72282709,11.4637399 C8.61400857,11.4795522 8.51343737,11.5307958 8.43668307,11.6095376 C8.24393246,11.8072794 8.24797861,12.123836 8.4457204,12.3165866 L8.4457204,12.3165866 L9.86012284,13.6952882 L9.52622772,15.6420462 C9.50763929,15.750425 9.52529663,15.861909 9.57646617,15.9592393 C9.70496657,16.2036616 10.0072801,16.2976348 10.2517024,16.1691344 L10.2517024,16.1691344 L12,15.25 L13.7482976,16.1691344 C13.8456278,16.220304 13.9571118,16.2379613 14.0654907,16.2193729 C14.3376589,16.1726924 14.5204528,15.9142144 14.4737723,15.6420462 L14.4737723,15.6420462 L14.1398772,13.6952882 L15.5542796,12.3165866 C15.6330214,12.2398323 15.684265,12.1392611 15.7000773,12.0304426 C15.7397861,11.7571702 15.5504453,11.5034487 15.2771729,11.4637399 L15.2771729,11.4637399 L13.3225168,11.1797118 L12.448368,9.40849288 C12.3997029,9.30988657 12.3198892,9.23007281 12.2212829,9.18140769 Z"/>
</svg>

<svg xmlns="http://www.w3.org/2000/svg" viewBox="0 0 24 24">
  <path d="m11 4 2 2h7a2 2 0 0 1 2 2v10a2 2 0 0 1-2 2H4a2 2 0 0 1-2-2V6c0-1.1.9-2 2-2h7zm1.22 5.18a.5.5 0 0 0-.67.23l-.87 1.77-1.96.28a.5.5 0 0 0-.27.86l1.41 1.38-.33 1.94a.5.5 0 0 0 .72.53l1.75-.92 1.75.92a.5.5 0 0 0 .72-.53l-.33-1.94 1.41-1.38a.5.5 0 0 0-.27-.86l-1.96-.28-.87-1.77a.5.5 0 0 0-.23-.23z"/>
</svg>
